icons/magic-line.svg

<svg xmlns="http://www.w3.org/2000/svg" width="24" height="24" fill="none"><g clip-path="url(#a)"><g><path fill="#121212" d="M15.199 9.94503C14.7653 9.53415 14.4863 8.98644 14.409 8.39403L14.006 5.31103L11.276 6.79703C10.7511 7.08305 10.1437 7.17946 9.556 7.07003L6.5 6.50003L7.07 9.55603C7.17943 10.1437 7.08302 10.7511 6.797 11.276L5.311 14.006L8.394 14.409C8.98606 14.4866 9.53338 14.7655 9.944 15.199L12.082 17.456L13.418 14.649C13.6744 14.1096 14.1088 13.6749 14.648 13.418L17.456 12.082L15.199 9.94503ZM15.224 15.508L13.011 20.158C12.9691 20.246 12.9065 20.3224 12.8285 20.3807C12.7505 20.439 12.6595 20.4774 12.5633 20.4927C12.4671 20.5079 12.3687 20.4995 12.2765 20.4682C12.1842 20.4369 12.101 20.3837 12.034 20.313L8.492 16.574C8.39738 16.4742 8.27135 16.41 8.135 16.392L3.028 15.724C2.93152 15.7113 2.83957 15.6753 2.76009 15.6192C2.68061 15.563 2.61599 15.4883 2.5718 15.4016C2.52761 15.3149 2.50517 15.2187 2.50643 15.1214C2.50768 15.0241 2.53259 14.9286 2.579 14.843L5.041 10.319C5.10645 10.198 5.12834 10.0582 5.103 9.92303L4.16 4.86003C4.1421 4.7642 4.14781 4.66544 4.17665 4.57232C4.20549 4.47919 4.2566 4.39449 4.32553 4.32556C4.39447 4.25662 4.47916 4.20552 4.57229 4.17668C4.66542 4.14784 4.76417 4.14212 4.86 4.16003L9.923 5.10303C10.0582 5.12837 10.198 5.10648 10.319 5.04103L14.843 2.57903C14.9286 2.5326 15.0242 2.50772 15.1216 2.50652C15.219 2.50531 15.3152 2.52784 15.4019 2.57214C15.4887 2.61644 15.5633 2.68119 15.6194 2.76079C15.6755 2.84039 15.7114 2.93245 15.724 3.02903L16.392 8.13503C16.41 8.27137 16.4742 8.3974 16.574 8.49203L20.313 12.034C20.3837 12.1011 20.4369 12.1843 20.4682 12.2765C20.4995 12.3687 20.5079 12.4671 20.4926 12.5633C20.4774 12.6595 20.4389 12.7505 20.3806 12.8285C20.3223 12.9065 20.2459 12.9692 20.158 13.011L15.508 15.224C15.3835 15.2833 15.2832 15.3835 15.224 15.508ZM16.021 17.435L17.435 16.021L21.678 20.263L20.263 21.678L16.021 17.435Z"/></g></g><defs><clipPath id="a"><rect width="24" height="24" fill="white"/></clipPath></defs></svg>

<svg width="24" height="24" fill="none" xmlns="http://www.w3.org/2000/svg"><g clip-path="url(#a)"><path d="M15.199 9.945a2.6 2.6 0 0 1-.79-1.551l-.403-3.083-2.73 1.486a2.6 2.6 0 0 1-1.72.273L6.5 6.5l.57 3.056a2.6 2.6 0 0 1-.273 1.72l-1.486 2.73 3.083.403a2.6 2.6 0 0 1 1.55.79l2.138 2.257 1.336-2.807a2.6 2.6 0 0 1 1.23-1.231l2.808-1.336-2.257-2.137Zm.025 5.563-2.213 4.65a.6.6 0 0 1-.977.155l-3.542-3.739a.6.6 0 0 0-.357-.182l-5.107-.668a.6.6 0 0 1-.449-.881l2.462-4.524a.6.6 0 0 0 .062-.396L4.16 4.86a.6.6 0 0 1 .7-.7l5.063.943a.6.6 0 0 0 .396-.062l4.524-2.462a.6.6 0 0 1 .881.45l.668 5.106a.6.6 0 0 0 .182.357l3.739 3.542a.6.6 0 0 1-.155.977l-4.65 2.213a.6.6 0 0 0-.284.284Zm.797 1.927 1.414-1.414 4.243 4.242-1.415 1.415-4.242-4.243Z" /></g><defs><clipPath id="a"><path fill="#fff" d="M0 0h24v24H0z"/></clipPath></defs></svg>
